Icons/rename_me_frostwire.svg

<svg viewBox="0 0 48 48" xmlns:xlink="http://www.w3.org/1999/xlink">
 <defs>
  <linearGradient id="0">
   <stop stop-opacity="0"/>
   <stop offset="1"/>
  </linearGradient>
  <linearGradient xlink:href="#0" id="1" gradientUnits="userSpaceOnUse" gradientTransform="translate(4e-7,-48)" y1="47" x2="0" y2="1"/>
  <clipPath id="2">
   <g transform="translate(0,-1004.3622)">
    <rect rx="4" y="1005.36" x="1" height="46" width="46" fill="#1890d0"/>
   </g>
  </clipPath>
  <clipPath id="3">
   <g transform="translate(0,-1004.3622)">
    <rect rx="4" y="1005.36" x="1" height="46" width="46" fill="#1890d0"/>
   </g>
  </clipPath>
 </defs>
 <g>
  <g transform="translate(0,-1004.3622)">
   <path d="m 5,1006.3622 c -2.216,0 -4,1.784 -4,4 l 0,37.25 c 0,2.216 1.784,4 4,4 l 38,0 c 2.216,0 4,-1.784 4,-4 l 0,-37.25 c 0,-2.216 -1.784,-4 -4,-4 l -38,0 z m -4,41.5 0,0.5 c 0,2.216 1.784,4 4,4 l 38,0 c 2.216,0 4,-1.784 4,-4 l 0,-0.5 c 0,2.216 -1.784,4 -4,4 l -38,0 c -2.216,0 -4,-1.784 -4,-4 z" opacity="0.02"/>
   <path d="m 1,1047.6122 0,0.25 c 0,2.216 1.784,4 4,4 l 38,0 c 2.216,0 4,-1.784 4,-4 l 0,-0.25 c 0,2.216 -1.784,4 -4,4 l -38,0 c -2.216,0 -4,-1.784 -4,-4 z" opacity="0.05"/>
   <rect width="46" height="46" x="1" y="1005.61" rx="4" opacity="0.1"/>
  </g>
 </g>
 <g>
  <g transform="translate(0,-1004.3622)">
   <rect rx="4" y="1005.36" x="1" height="46" width="46" fill="#599ed9"/>
  </g>
 </g>
 <g>
  <rect transform="scale(1,-1)" width="46" height="46" x="1" y="-46.998" rx="4" opacity="0.1" fill="url(#1)"/>
 </g>
 <g>
  <g clip-path="url(#2)">
   <g opacity="0.1">
    <g>
     <path d="M 18.128906 15.003906 C 17.765625 15.039062 17.476562 15.433594 17.710938 15.890625 C 18.75 18.054688 19.367188 19.597656 20.441406 21.976562 C 20.632812 21.519531 20.75 21.203125 21.039062 20.527344 C 19.929688 18.265625 19.773438 17.308594 18.746094 15.382812 C 18.582031 15.09375 18.347656 14.980469 18.128906 15.003906 Z M 30.015625 15.082031 C 29.789062 15.070312 29.546875 15.214844 29.398438 15.570312 C 28.042969 18.710938 25.546875 25.058594 24.433594 27.609375 C 23.800781 28.9375 24.933594 29.472656 25.363281 28.738281 C 26.800781 25.664062 28.957031 19.777344 30.527344 16.023438 C 30.722656 15.523438 30.394531 15.101562 30.015625 15.082031 Z M 23.148438 19.136719 C 22.921875 19.128906 22.695312 19.269531 22.550781 19.628906 C 21.195312 22.765625 18.679688 29.132812 17.566406 31.683594 C 16.933594 33.015625 18.054688 33.402344 18.542969 32.542969 C 19.980469 29.46875 22.101562 23.832031 23.671875 20.078125 C 23.867188 19.578125 23.527344 19.15625 23.148438 19.136719 Z M 25.421875 19.738281 C 25.195312 19.726562 24.96875 19.851562 24.820312 20.207031 C 23.464844 23.34375 22.984375 24.886719 21.871094 27.4375 C 21.238281 28.769531 22.3125 29.230469 22.742188 28.25 C 24.179688 25.175781 24.371094 24.429688 25.945312 20.675781 C 26.140625 20.179688 25.796875 19.753906 25.421875 19.738281 Z M 37 20.117188 C 34.792969 20.65625 33.019531 21.609375 31.023438 22.914062 C 30.433594 22.4375 30.050781 22.042969 29.582031 21.546875 C 29.429688 21.835938 29.058594 22.636719 28.921875 22.855469 C 29.417969 23.351562 29.625 23.648438 30.015625 23.941406 C 29.542969 24.292969 29.546875 24.402344 28.421875 25.429688 C 28.65625 25.890625 28.785156 26.332031 29.019531 26.78125 C 29.566406 26.175781 29.972656 25.6875 31.148438 24.882812 C 32.777344 25.765625 34.160156 26.691406 37 27.5 L 37 25.839844 C 35.65625 25.402344 33.695312 24.796875 32.472656 23.914062 C 33.425781 23.222656 34.707031 22.535156 37 21.984375 Z M 11 20.535156 L 11 22.113281 C 12.351562 22.558594 14.316406 23.199219 15.527344 24.074219 C 14.574219 24.765625 13.292969 25.433594 11 25.980469 L 11 27.867188 C 13.210938 27.328125 15 26.355469 16.996094 25.050781 C 17.585938 25.53125 17.949219 25.945312 18.417969 26.441406 C 18.570312 26.148438 18.953125 25.328125 19.085938 25.113281 C 18.59375 24.617188 18.394531 24.335938 18.003906 24.042969 C 18.476562 23.695312 18.46875 23.582031 19.597656 22.554688 C 19.363281 22.09375 19.234375 21.652344 19 21.207031 C 18.453125 21.8125 18.027344 22.296875 16.851562 23.105469 C 15.242188 22.230469 13.78125 21.335938 11 20.535156 Z M 27.53125 25.710938 C 27.335938 26.167969 27.199219 26.460938 26.910156 27.140625 C 28.023438 29.402344 28.195312 30.375 29.222656 32.304688 C 29.660156 33.070312 30.636719 32.527344 30.257812 31.792969 C 29.222656 29.628906 28.605469 28.089844 27.53125 25.710938 Z M 27.53125 25.710938 " fill-rule="evenodd"/>
    </g>
   </g>
  </g>
 </g>
 <g>
  <g clip-path="url(#3)">
   <g transform="translate(0,-1)">
    <g>
     <path d="M 18.128906 15.003906 C 17.765625 15.039062 17.476562 15.433594 17.710938 15.890625 C 18.75 18.054688 19.367188 19.597656 20.441406 21.976562 C 20.632812 21.519531 20.75 21.203125 21.039062 20.527344 C 19.929688 18.265625 19.773438 17.308594 18.746094 15.382812 C 18.582031 15.09375 18.347656 14.980469 18.128906 15.003906 Z M 30.015625 15.082031 C 29.789062 15.070312 29.546875 15.214844 29.398438 15.570312 C 28.042969 18.710938 25.546875 25.058594 24.433594 27.609375 C 23.800781 28.9375 24.933594 29.472656 25.363281 28.738281 C 26.800781 25.664062 28.957031 19.777344 30.527344 16.023438 C 30.722656 15.523438 30.394531 15.101562 30.015625 15.082031 Z M 23.148438 19.136719 C 22.921875 19.128906 22.695312 19.269531 22.550781 19.628906 C 21.195312 22.765625 18.679688 29.132812 17.566406 31.683594 C 16.933594 33.015625 18.054688 33.402344 18.542969 32.542969 C 19.980469 29.46875 22.101562 23.832031 23.671875 20.078125 C 23.867188 19.578125 23.527344 19.15625 23.148438 19.136719 Z M 25.421875 19.738281 C 25.195312 19.726562 24.96875 19.851562 24.820312 20.207031 C 23.464844 23.34375 22.984375 24.886719 21.871094 27.4375 C 21.238281 28.769531 22.3125 29.230469 22.742188 28.25 C 24.179688 25.175781 24.371094 24.429688 25.945312 20.675781 C 26.140625 20.179688 25.796875 19.753906 25.421875 19.738281 Z M 37 20.117188 C 34.792969 20.65625 33.019531 21.609375 31.023438 22.914062 C 30.433594 22.4375 30.050781 22.042969 29.582031 21.546875 C 29.429688 21.835938 29.058594 22.636719 28.921875 22.855469 C 29.417969 23.351562 29.625 23.648438 30.015625 23.941406 C 29.542969 24.292969 29.546875 24.402344 28.421875 25.429688 C 28.65625 25.890625 28.785156 26.332031 29.019531 26.78125 C 29.566406 26.175781 29.972656 25.6875 31.148438 24.882812 C 32.777344 25.765625 34.160156 26.691406 37 27.5 L 37 25.839844 C 35.65625 25.402344 33.695312 24.796875 32.472656 23.914062 C 33.425781 23.222656 34.707031 22.535156 37 21.984375 Z M 11 20.535156 L 11 22.113281 C 12.351562 22.558594 14.316406 23.199219 15.527344 24.074219 C 14.574219 24.765625 13.292969 25.433594 11 25.980469 L 11 27.867188 C 13.210938 27.328125 15 26.355469 16.996094 25.050781 C 17.585938 25.53125 17.949219 25.945312 18.417969 26.441406 C 18.570312 26.148438 18.953125 25.328125 19.085938 25.113281 C 18.59375 24.617188 18.394531 24.335938 18.003906 24.042969 C 18.476562 23.695312 18.46875 23.582031 19.597656 22.554688 C 19.363281 22.09375 19.234375 21.652344 19 21.207031 C 18.453125 21.8125 18.027344 22.296875 16.851562 23.105469 C 15.242188 22.230469 13.78125 21.335938 11 20.535156 Z M 27.53125 25.710938 C 27.335938 26.167969 27.199219 26.460938 26.910156 27.140625 C 28.023438 29.402344 28.195312 30.375 29.222656 32.304688 C 29.660156 33.070312 30.636719 32.527344 30.257812 31.792969 C 29.222656 29.628906 28.605469 28.089844 27.53125 25.710938 Z M 27.53125 25.710938 " fill="#ffffff" fill-rule="evenodd"/>
    </g>
   </g>
  </g>
 </g>
 <g>
  <g transform="translate(0,-1004.3622)">
   <path d="m 1,1043.3622 0,4 c 0,2.216 1.784,4 4,4 l 38,0 c 2.216,0 4,-1.784 4,-4 l 0,-4 c 0,2.216 -1.784,4 -4,4 l -38,0 c -2.216,0 -4,-1.784 -4,-4 z" opacity="0.1"/>
  </g>
 </g>
</svg>

<svg viewBox="0 0 48 48"><defs><linearGradient id="linearGradient3764" x1="1" x2="47" gradientUnits="userSpaceOnUse" gradientTransform="translate(-48.000001,0.00221467)"><stop stop-color="#4995d5" stop-opacity="1"/><stop offset="1" stop-color="#599ed9" stop-opacity="1"/></linearGradient><clipPath id="clipPath-877903695"><g transform="translate(0,-1004.3622)"><rect rx="4" y="1005.36" x="1" height="46" width="46" fill="#1890d0"/></g></clipPath><clipPath id="clipPath-891766836"><g transform="translate(0,-1004.3622)"><rect rx="4" y="1005.36" x="1" height="46" width="46" fill="#1890d0"/></g></clipPath></defs><g><path d="m 1 43 l 0 0.25 c 0 2.216 1.784 4 4 4 l 38 0 c 2.216 0 4 -1.784 4 -4 l 0 -0.25 c 0 2.216 -1.784 4 -4 4 l -38 0 c -2.216 0 -4 -1.784 -4 -4 z m 0 0.5 l 0 0.5 c 0 2.216 1.784 4 4 4 l 38 0 c 2.216 0 4 -1.784 4 -4 l 0 -0.5 c 0 2.216 -1.784 4 -4 4 l -38 0 c -2.216 0 -4 -1.784 -4 -4 z" opacity="0.02"/><path d="m 1 43.25 l 0 0.25 c 0 2.216 1.784 4 4 4 l 38 0 c 2.216 0 4 -1.784 4 -4 l 0 -0.25 c 0 2.216 -1.784 4 -4 4 l -38 0 c -2.216 0 -4 -1.784 -4 -4 z" opacity="0.05"/><path d="m 1 43 l 0 0.25 c 0 2.216 1.784 4 4 4 l 38 0 c 2.216 0 4 -1.784 4 -4 l 0 -0.25 c 0 2.216 -1.784 4 -4 4 l -38 0 c -2.216 0 -4 -1.784 -4 -4 z" opacity="0.1"/></g><g><rect width="46" height="46" x="-47" y="1" rx="4" transform="matrix(0,-1,1,0,0,0)" fill="url(#linearGradient3764)" fill-opacity="1"/></g><g><g clip-path="url(#clipPath-877903695)"><g opacity="0.1"><!-- color: #599ed9 --><g><path d="m 18.13 15 c -0.363 0.035 -0.652 0.43 -0.418 0.887 c 1.039 2.164 1.656 3.707 2.73 6.086 c 0.191 -0.457 0.309 -0.773 0.598 -1.449 c -1.109 -2.262 -1.266 -3.219 -2.293 -5.145 c -0.164 -0.289 -0.398 -0.402 -0.617 -0.379 m 11.887 0.078 c -0.227 -0.012 -0.469 0.133 -0.617 0.488 c -1.355 3.141 -3.852 9.488 -4.965 12.04 c -0.633 1.328 0.5 1.863 0.93 1.129 c 1.438 -3.074 3.594 -8.961 5.164 -12.715 c 0.195 -0.5 -0.133 -0.922 -0.512 -0.941 m -6.867 4.055 c -0.227 -0.008 -0.453 0.133 -0.598 0.492 c -1.355 3.137 -3.871 9.504 -4.984 12.05 c -0.633 1.332 0.488 1.719 0.977 0.859 c 1.438 -3.074 3.559 -8.711 5.129 -12.465 c 0.195 -0.5 -0.145 -0.922 -0.523 -0.941 m 2.273 0.602 c -0.227 -0.012 -0.453 0.113 -0.602 0.469 c -1.355 3.137 -1.836 4.68 -2.949 7.23 c -0.633 1.332 0.441 1.793 0.871 0.813 c 1.438 -3.074 1.629 -3.82 3.203 -7.574 c 0.195 -0.496 -0.148 -0.922 -0.523 -0.938 m 11.578 0.379 c -2.207 0.539 -3.98 1.492 -5.977 2.797 c -0.59 -0.477 -0.973 -0.871 -1.441 -1.367 c -0.152 0.289 -0.523 1.09 -0.66 1.309 c 0.496 0.496 0.703 0.793 1.094 1.086 c -0.473 0.352 -0.469 0.461 -1.594 1.488 c 0.234 0.461 0.363 0.902 0.598 1.352 c 0.547 -0.605 0.953 -1.094 2.129 -1.898 c 1.629 0.883 3.01 1.809 5.852 2.617 l 0 -1.66 c -1.344 -0.438 -3.305 -1.043 -4.527 -1.926 c 0.953 -0.691 2.234 -1.379 4.527 -1.93 m -26 -1.449 l 0 1.578 c 1.352 0.445 3.316 1.086 4.527 1.961 c -0.953 0.691 -2.234 1.359 -4.527 1.906 l 0 1.887 c 2.211 -0.539 4 -1.512 5.996 -2.816 c 0.59 0.48 0.953 0.895 1.422 1.391 c 0.152 -0.293 0.535 -1.113 0.668 -1.328 c -0.492 -0.496 -0.691 -0.777 -1.082 -1.07 c 0.473 -0.348 0.465 -0.461 1.594 -1.488 c -0.234 -0.461 -0.363 -0.902 -0.598 -1.348 c -0.547 0.605 -0.973 1.09 -2.148 1.898 c -1.609 -0.875 -3.07 -1.77 -5.852 -2.57 m 16.531 5.176 c -0.195 0.457 -0.332 0.75 -0.621 1.43 c 1.113 2.262 1.285 3.234 2.313 5.164 c 0.438 0.766 1.414 0.223 1.035 -0.512 c -1.035 -2.164 -1.652 -3.703 -2.727 -6.082 m 0 0" fill-rule="evenodd" fill="#000"/></g></g></g></g><g><g clip-path="url(#clipPath-891766836)"><g transform="translate(0,-1)"><!-- color: #599ed9 --><g><path d="m 18.13 15 c -0.363 0.035 -0.652 0.43 -0.418 0.887 c 1.039 2.164 1.656 3.707 2.73 6.086 c 0.191 -0.457 0.309 -0.773 0.598 -1.449 c -1.109 -2.262 -1.266 -3.219 -2.293 -5.145 c -0.164 -0.289 -0.398 -0.402 -0.617 -0.379 m 11.887 0.078 c -0.227 -0.012 -0.469 0.133 -0.617 0.488 c -1.355 3.141 -3.852 9.488 -4.965 12.04 c -0.633 1.328 0.5 1.863 0.93 1.129 c 1.438 -3.074 3.594 -8.961 5.164 -12.715 c 0.195 -0.5 -0.133 -0.922 -0.512 -0.941 m -6.867 4.055 c -0.227 -0.008 -0.453 0.133 -0.598 0.492 c -1.355 3.137 -3.871 9.504 -4.984 12.05 c -0.633 1.332 0.488 1.719 0.977 0.859 c 1.438 -3.074 3.559 -8.711 5.129 -12.465 c 0.195 -0.5 -0.145 -0.922 -0.523 -0.941 m 2.273 0.602 c -0.227 -0.012 -0.453 0.113 -0.602 0.469 c -1.355 3.137 -1.836 4.68 -2.949 7.23 c -0.633 1.332 0.441 1.793 0.871 0.813 c 1.438 -3.074 1.629 -3.82 3.203 -7.574 c 0.195 -0.496 -0.148 -0.922 -0.523 -0.938 m 11.578 0.379 c -2.207 0.539 -3.98 1.492 -5.977 2.797 c -0.59 -0.477 -0.973 -0.871 -1.441 -1.367 c -0.152 0.289 -0.523 1.09 -0.66 1.309 c 0.496 0.496 0.703 0.793 1.094 1.086 c -0.473 0.352 -0.469 0.461 -1.594 1.488 c 0.234 0.461 0.363 0.902 0.598 1.352 c 0.547 -0.605 0.953 -1.094 2.129 -1.898 c 1.629 0.883 3.01 1.809 5.852 2.617 l 0 -1.66 c -1.344 -0.438 -3.305 -1.043 -4.527 -1.926 c 0.953 -0.691 2.234 -1.379 4.527 -1.93 m -26 -1.449 l 0 1.578 c 1.352 0.445 3.316 1.086 4.527 1.961 c -0.953 0.691 -2.234 1.359 -4.527 1.906 l 0 1.887 c 2.211 -0.539 4 -1.512 5.996 -2.816 c 0.59 0.48 0.953 0.895 1.422 1.391 c 0.152 -0.293 0.535 -1.113 0.668 -1.328 c -0.492 -0.496 -0.691 -0.777 -1.082 -1.07 c 0.473 -0.348 0.465 -0.461 1.594 -1.488 c -0.234 -0.461 -0.363 -0.902 -0.598 -1.348 c -0.547 0.605 -0.973 1.09 -2.148 1.898 c -1.609 -0.875 -3.07 -1.77 -5.852 -2.57 m 16.531 5.176 c -0.195 0.457 -0.332 0.75 -0.621 1.43 c 1.113 2.262 1.285 3.234 2.313 5.164 c 0.438 0.766 1.414 0.223 1.035 -0.512 c -1.035 -2.164 -1.652 -3.703 -2.727 -6.082 m 0 0" fill="#fff" fill-rule="evenodd"/></g></g></g></g><g><g transform="translate(0,-1004.3622)"><path d="m 1 1043.36 0 4 c 0 2.216 1.784 4 4 4 l 38 0 c 2.216 0 4 -1.784 4 -4 l 0 -4 c 0 2.216 -1.784 4 -4 4 l -38 0 c -2.216 0 -4 -1.784 -4 -4 z" opacity="0.1"/></g></g></svg>
